assets/icons/add_automation.svg

<svg fill="none" height="25" viewBox="0 0 25 25" width="25"><path clip-rule="evenodd" d="m1.5 6a4.5 4.5 0 0 1 4.5-4.5h1.75a.5.5 0 0 0 0-1h-1.75a5.5 5.5 0 0 0 -5.5 5.5v2a.5.5 0 0 0 1 0zm15.75-5.5a.5.5 0 0 0 0 1h1.75a4.5 4.5 0 0 1 4.5 4.5v2a.5.5 0 0 0 1 0v-2a5.5 5.5 0 0 0 -5.5-5.5zm-16.25 16a.5.5 0 0 1 .5.5v2a4.5 4.5 0 0 0 4.5 4.5h1.75a.5.5 0 0 1 0 1h-1.75a5.5 5.5 0 0 1 -5.5-5.5v-2a.5.5 0 0 1 .5-.5zm23.5.5a.5.5 0 0 0 -1 0v2a4.5 4.5 0 0 1 -4.5 4.5h-1.75a.5.5 0 0 0 0 1h1.75a5.5 5.5 0 0 0 5.5-5.5zm-11.5-7.5a.5.5 0 0 0 -1 0v2.5h-2.5a.5.5 0 0 0 0 1h2.5v2.5a.5.5 0 0 0 1 0v-2.5h2.5a.5.5 0 0 0 0-1h-2.5z" fill="#18303f" fill-rule="evenodd"/></svg>

<svg width="25" height="25" viewBox="0 0 25 25" fill="none"><g id="add_automation"><path id="iconDefault" fill-rule="evenodd" clip-rule="evenodd" d="M1.5 6A4.5 4.5 0 0 1 6 1.5h1.75a.5.5 0 0 0 0-1H6A5.5 5.5 0 0 0 .5 6v2a.5.5 0 0 0 1 0V6ZM17.25.5a.5.5 0 0 0 0 1H19A4.5 4.5 0 0 1 23.5 6v2a.5.5 0 0 0 1 0V6A5.5 5.5 0 0 0 19 .5h-1.75ZM1 16.5a.5.5 0 0 1 .5.5v2A4.5 4.5 0 0 0 6 23.5h1.75a.5.5 0 0 1 0 1H6A5.5 5.5 0 0 1 .5 19v-2a.5.5 0 0 1 .5-.5Zm23.5.5a.5.5 0 0 0-1 0v2a4.5 4.5 0 0 1-4.5 4.5h-1.75a.5.5 0 0 0 0 1H19a5.5 5.5 0 0 0 5.5-5.5v-2ZM13 9.5a.5.5 0 0 0-1 0V12H9.5a.5.5 0 0 0 0 1H12v2.5a.5.5 0 0 0 1 0V13h2.5a.5.5 0 0 0 0-1H13V9.5Z" fill="#18303F"/></g></svg>
